X:1
T:Title
%%score { ( 1 3 5 ) | ( 2 4 ) }
L:1/8
M:4/4
K:G
V:1 treble nm="Grand Piano"
V:3 treble 
V:5 treble 
V:2 bass 
V:4 bass 
V:1
 z4 z2[Q:1/4=94] DD | GGGA GGDG |[M:3/4] BB Bc B2 |[M:1/4] Bc |[M:4/4] ddde dBBB | %5
[M:3/4] [GB][FA] [FA][FA] [FA]2 |[M:1/4] DD |[M:4/4] GGGA GGDG |[M:3/4] BB Bc B2 |[M:1/4] Bc | %10
[M:4/4] ddde dB[DG][EGA] |[M:3/4] [DGB][DGB] [CFA][CFA] [B,DG]2 |[M:1/4] FG |[M:4/4] z2 [Fd]4 z2 | %14
 G2 B4 BB | A3 d d2 ^c2 |[M:3/4] d6 |[M:1/4] Bc |[M:4/4] d6 z2 | [Gc]2 [Ge]4 [EG][^DA] | %20
 z2 z B z2 z A |[M:3/4] G6 |] %22
V:2
 z4 z2 [G,B,][G,B,] | [G,B,D][G,B,D][G,B,D][G,CD] [G,B,D][G,B,D][G,B,][K:treble][G,B,D] | %2
[M:3/4] [G,D][G,D] [G,D][G,E] [G,D]2 |[M:1/4] [G,G][G,A,G] | %4
[M:4/4] [G,B,G][G,B,G][G,B,G][G,CG] [G,B,G][G,DG][G,DG][G,DG] | %5
[M:3/4][K:bass] [D,D][D,D] [D,D][D,D] [D,D]2 |[M:1/4] [D,C][D,C] | %7
[M:4/4] [G,B,D][G,B,D][G,B,D][G,CD] [G,B,D][G,B,D][G,B,][K:treble][G,B,D] | %8
[M:3/4] [G,D][G,D] [G,D][G,E] [G,D]2 |[M:1/4] [G,G][G,A,G] | %10
[M:4/4] [G,B,G][G,B,G][G,B,G][G,CG] [G,B,G][G,DG][K:bass]B,,C, |[M:3/4] D,D, D,D, G,,2 | %12
[M:1/4][K:treble] DE |[M:4/4] F2[K:bass] [D,A,]D, D,[D,D][D,D][D,C] | %14
 [G,B,D]2 [G,DG]4 [G,DG][G,DG] | [A,DF]3 [A,DF] [A,EG]2 [A,EG]2 |[M:3/4][K:bass] z D CB, A,2 | %17
[M:1/4][K:treble] GA |[M:4/4] B6 z2 | [C,C]2 [C,C]4 [C,C][C,C] | [G,D]2 z2 [CD]2 C2 | %21
[M:3/4] z B, CC B,2 |] %22
V:3
 x8 | x8 |[M:3/4] x6 |[M:1/4] x2 |[M:4/4] x8 |[M:3/4] x6 |[M:1/4] x2 |[M:4/4] x8 |[M:3/4] x6 | %9
[M:1/4] x2 |[M:4/4] x8 |[M:3/4] x6 |[M:1/4] x2 |[M:4/4] A2 z A, A,[Ac][GB][FA] | x8 | x8 | %16
[M:3/4] [DF]F AG F2 |[M:1/4] x2 |[M:4/4] z2 DD DGAB | x8 | B4 A4 |[M:3/4] [B,D]D EE D2 |] %22
V:4
 x8 | x7[K:treble] x |[M:3/4] x6 |[M:1/4] x2 |[M:4/4] x8 |[M:3/4][K:bass] x6 |[M:1/4] x2 | %7
[M:4/4] x7[K:treble] x |[M:3/4] x6 |[M:1/4] x2 |[M:4/4] x6[K:bass] x2 |[M:3/4] x6 | %12
[M:1/4][K:treble] x2 |[M:4/4] x2[K:bass] x6 | x8 | x8 |[M:3/4][K:bass] D,6 |[M:1/4][K:treble] x2 | %18
[M:4/4] z2 G,G, G,[G,B,][G,CG][G,DG] | x8 | D,2- [D,G,]D, D,3 D, |[M:3/4] G,,6 |] %22
V:5
 x8 | x8 |[M:3/4] x6 |[M:1/4] x2 |[M:4/4] x8 |[M:3/4] x6 |[M:1/4] x2 |[M:4/4] x8 |[M:3/4] x6 | %9
[M:1/4] x2 |[M:4/4] x8 |[M:3/4] x6 |[M:1/4] x2 |[M:4/4] x8 | x8 | x8 |[M:3/4] x6 |[M:1/4] x2 | %18
[M:4/4] x8 | x8 | z2 D2 z2 D2 |[M:3/4] x6 |] %22

